src/assets/images/reactivate-image.svg

<?xml version="1.0" encoding="UTF-8"?>
<svg width="200px" height="206px" viewBox="0 0 200 206" version="1.1" xmlns="http://www.w3.org/2000/svg" xmlns:xlink="http://www.w3.org/1999/xlink">
    <!-- Generator: Sketch 52.5 (67469) - http://www.bohemiancoding.com/sketch -->
    <title>Icon</title>
    <desc>Created with Sketch.</desc>
    <g id="All" stroke="none" stroke-width="1" fill="none" fill-rule="evenodd">
        <g id="Icon">
            <circle id="Oval" fill="#FFFFFF" fill-rule="nonzero" cx="100" cy="105" r="100"></circle>
            <g id="items" transform="translate(29.000000, 18.000000)" fill-rule="nonzero" stroke="#CFD8DC" stroke-width="3">
                <path d="M92,1.5 C86.2010101,1.5 81.5,6.20101013 81.5,12 L81.5,74 C81.5,79.7989899 86.2010101,84.5 92,84.5 L130,84.5 C135.79899,84.5 140.5,79.7989899 140.5,74 L140.5,12 C140.5,6.20101013 135.79899,1.5 130,1.5 L92,1.5 Z" id="Rectangle-2"></path>
                <path d="M90,64 L118,64" id="Line-4" stroke-linecap="round"></path>
                <path d="M82,54 L140,54" id="Line-4" stroke-linecap="round"></path>
                <path d="M82,136 L140,136" id="Line-4" stroke-linecap="round"></path>
                <path d="M2,156 L60,156" id="Line-4" stroke-linecap="round"></path>
                <path d="M90,74 L128,74" id="Line-4-Copy" stroke-linecap="round"></path>
                <path d="M90,146 L118,146" id="Line-4" stroke-linecap="round"></path>
                <path d="M90,156 L128,156" id="Line-4-Copy" stroke-linecap="round"></path>
                <path d="M10,166 L38,166" id="Line-4" stroke-linecap="round"></path>
                <path d="M10,176 L48,176" id="Line-4-Copy" stroke-linecap="round"></path>
                <path d="M92,95.5 C86.2010101,95.5 81.5,100.20101 81.5,106 L81.5,156 C81.5,161.79899 86.2010101,166.5 92,166.5 L130,166.5 C135.79899,166.5 140.5,161.79899 140.5,156 L140.5,106 C140.5,100.20101 135.79899,95.5 130,95.5 L92,95.5 Z" id="Rectangle-2"></path>
                <path d="M12,98.5 C6.20101013,98.5 1.5,103.20101 1.5,109 L1.5,176 C1.5,181.79899 6.20101013,186.5 12,186.5 L50,186.5 C55.7989899,186.5 60.5,181.79899 60.5,176 L60.5,109 C60.5,103.20101 55.7989899,98.5 50,98.5 L12,98.5 Z" id="Rectangle-2-Copy"></path>
            </g>
            <path d="M16.4246373,61.6981799 L6.83231393,67.6164243 C6.26748425,67.9649113 5.52725643,67.7892688 5.17896883,67.2241157 C4.83068122,66.6589626 5.00622326,65.918311 5.57105294,65.569824 L19.1678402,57.1809169 C19.9766381,56.681907 21.0169396,57.2753248 20.9997907,58.2259139 L20.7114995,74.2063686 C20.6995234,74.8702192 20.1519657,75.3986624 19.4884949,75.3866795 C18.8250242,75.3746966 18.2968834,74.8268254 18.3088594,74.1629748 L18.5122887,62.8865595 L13.9860426,70.8247968 C4.69449027,90.741281 6.06296761,111.156915 18.127673,132.199364 C18.4578763,132.775283 18.2589519,133.509993 17.683363,133.840385 C17.1077741,134.170778 16.3734844,133.971739 16.0432811,133.395821 C3.59998222,111.693054 2.17634288,90.4544858 11.8534984,69.720874 L16.4246373,61.6981799 Z" id="arrow" fill="#13C1AC" fill-rule="nonzero"></path>
            <path d="M1.60788337,30.3535637 L3.11425486,30.8730022 C4.52796976,31.3615551 5.63844492,32.4720302 6.1262959,33.8857451 L6.64643629,35.3921166 C6.77208423,35.7557235 7.11463283,36 7.5,36 C7.88466523,36 8.22721382,35.7557235 8.35286177,35.3921166 L8.87230022,33.8857451 C9.36015119,32.4720302 10.4713283,31.3615551 11.8850432,30.8730022 L13.3914147,30.3535637 C13.7550216,30.2272138 13.9992981,29.8853672 13.9992981,29.5 C13.9992981,29.1153348 13.7550216,28.7727862 13.3914147,28.6471382 L11.8850432,28.1269978 C10.4713283,27.6391469 9.36015119,26.5286717 8.87230022,25.1149568 L8.35286177,23.6085853 C8.22721382,23.2449784 7.88466523,23 7.49929806,23 C7.11463283,23 6.77208423,23.2449784 6.64643629,23.6085853 L6.1262959,25.1149568 C5.63844492,26.5286717 4.52796976,27.6391469 3.11425486,28.1269978 L1.60788337,28.6471382 C1.24357451,28.7727862 1,29.1153348 1,29.5 C1,29.8853672 1.24357451,30.2272138 1.60788337,30.3535637" id="Fill-1" fill="#FFC900"></path>
            <path d="M92.654679,77.9196501 L94.2770128,78.4790755 C95.7995572,79.0052379 96.9955181,80.2011988 97.5209245,81.7237432 L98.0811059,83.346077 C98.2164264,83.7376748 98.5853448,84.000756 99.000378,84.000756 C99.4146552,84.000756 99.7835736,83.7376748 99.9188941,83.346077 L100.47832,81.7237432 C101.003726,80.2011988 102.200443,79.0052379 103.722987,78.4790755 L105.345321,77.9196501 C105.736919,77.7835736 106,77.4154112 106,77.000378 C106,76.5861008 105.736919,76.2171824 105.345321,76.0818619 L103.722987,75.5216804 C102.200443,74.9962741 101.003726,73.8003132 100.47832,72.2777688 L99.9188941,70.655435 C99.7835736,70.2638371 99.4146552,70 98.999622,70 C98.5853448,70 98.2164264,70.2638371 98.0811059,70.655435 L97.5209245,72.2777688 C96.9955181,73.8003132 95.7995572,74.9962741 94.2770128,75.5216804 L92.654679,76.0818619 C92.2623252,76.2171824 92,76.5861008 92,77.000378 C92,77.4154112 92.2623252,77.7835736 92.654679,77.9196501" id="Fill-1-Copy-2" fill="#FFC900"></path>
            <path d="M79.4208651,5.09120363 L80.4637939,5.45083428 C81.4425725,5.78908148 82.2114045,6.55791349 82.5491657,7.53669205 L82.9092824,8.57962093 C82.9962741,8.83136238 83.2334359,9.00048599 83.500243,9.00048599 C83.7665641,9.00048599 84.0037259,8.83136238 84.0907176,8.57962093 L84.4503483,7.53669205 C84.7881095,6.55791349 85.5574275,5.78908148 86.5362061,5.45083428 L87.5791349,5.09120363 C87.8308764,5.0037259 88,4.76705006 88,4.50024299 C88,4.23392192 87.8308764,3.99676008 87.5791349,3.90976835 L86.5362061,3.54965171 C85.5574275,3.21189049 84.7881095,2.44305848 84.4503483,1.46427993 L84.0907176,0.421351045 C84.0037259,0.16960959 83.7665641,0 83.499757,0 C83.2334359,0 82.9962741,0.16960959 82.9092824,0.421351045 L82.5491657,1.46427993 C82.2114045,2.44305848 81.4425725,3.21189049 80.4637939,3.54965171 L79.4208651,3.90976835 C79.1686376,3.99676008 79,4.23392192 79,4.50024299 C79,4.76705006 79.1686376,5.0037259 79.4208651,5.09120363" id="Fill-1-Copy" fill="#FFC900"></path>
            <g id="single-item" transform="translate(18.000000, 7.000000)" stroke="#13C1AC" stroke-linejoin="round" stroke-width="3">
                <path d="M72.5,80.0003 C73.211,84.3733 70.689,90.8953 66.5,92.3333 C60.708,94.3223 32.444,98.9353 26.5,100.3333 C21.294,101.5583 15.007,95.5583 14.416,92.2533 C13,84.3333 11.938,77.3783 10.5,67.6673 C7.833,49.6673 2.437,28.5333 0.548,19.1733 C-0.307,14.9363 2.429,10.7843 6.5,9.3333 C10.438,7.9313 20.021,6.2123 29.458,4.1813 C35.418,2.8983 39.579,1.6553 42.949,0.8333 C49.818,-0.8427 56.177,3.5363 58.361,10.2603 C62.5,23.0003 66.016,40.5113 68.5,55.0003 C70.5,66.6673 72.5,80.0003 72.5,80.0003 Z" id="Stroke-167" stroke-linecap="round"></path>
                <path d="M12,71.3338 L68.5,59.3338" id="Stroke-185" stroke-linecap="round"></path>
                <path d="M20.5,80.8338 L42.5,76.3338" id="Stroke-187" stroke-linecap="round"></path>
                <path d="M23,90.3338 L63,81.8338" id="Stroke-189" stroke-linecap="round"></path>
                <path d="M27.248,41.4339 C28.216,45.4799 32.268,47.9919 36.326,47.0489 C40.385,46.1059 42.914,42.0649 42,38.0069 L27.248,41.4339 Z" id="Stroke-191"></path>
                <path d="M44.8008,30.7152 C46.1658,29.1912 48.3378,28.6862 50.2348,29.4532" id="Stroke-193" stroke-linecap="round"></path>
                <path d="M15.4092,37.5433 C16.7732,36.0193 18.9452,35.5143 20.8422,36.2813" id="Stroke-195" stroke-linecap="round"></path>
            </g>
        </g>
    </g>
</svg>

<svg width="200" height="206" viewBox="0 0 200 206" xmlns="http://www.w3.org/2000/svg"><g id="All" stroke="none" stroke-width="1" fill="none" fill-rule="evenodd"><g id="Icon"><circle id="Oval" fill="#FFF" fill-rule="nonzero" cx="100" cy="105" r="100"/><g id="items" transform="translate(29 18)" fill-rule="nonzero" stroke="#CFD8DC" stroke-width="3"><path d="M92 1.5c-5.799 0-10.5 4.701-10.5 10.5v62c0 5.799 4.701 10.5 10.5 10.5h38c5.799 0 10.5-4.701 10.5-10.5V12c0-5.799-4.701-10.5-10.5-10.5H92z" id="Rectangle-2"/><path d="M90 64h28M82 54h58M82 136h58M2 156h58" id="Line-4" stroke-linecap="round"/><path d="M90 74h38" id="Line-4-Copy" stroke-linecap="round"/><path d="M90 146h28" id="Line-4" stroke-linecap="round"/><path d="M90 156h38" id="Line-4-Copy" stroke-linecap="round"/><path d="M10 166h28" id="Line-4" stroke-linecap="round"/><path d="M10 176h38" id="Line-4-Copy" stroke-linecap="round"/><path d="M92 95.5c-5.799 0-10.5 4.701-10.5 10.5v50c0 5.799 4.701 10.5 10.5 10.5h38c5.799 0 10.5-4.701 10.5-10.5v-50c0-5.799-4.701-10.5-10.5-10.5H92z" id="Rectangle-2"/><path d="M12 98.5c-5.799 0-10.5 4.701-10.5 10.5v67c0 5.799 4.701 10.5 10.5 10.5h38c5.799 0 10.5-4.701 10.5-10.5v-67c0-5.799-4.701-10.5-10.5-10.5H12z" id="Rectangle-2-Copy"/></g><path d="M16.425 61.698l-9.593 5.918a1.201 1.201 0 11-1.26-2.046l13.596-8.39A1.202 1.202 0 0121 58.227l-.289 15.98a1.202 1.202 0 11-2.402-.043l.203-11.276-4.526 7.938c-9.292 19.916-7.923 40.332 4.142 61.374a1.203 1.203 0 01-2.085 1.197C3.6 111.693 2.176 90.454 11.853 69.72l4.572-8.023z" id="arrow" fill="#13C1AC" fill-rule="nonzero"/><path d="M1.608 30.354l1.506.519a4.867 4.867 0 013.012 3.013l.52 1.506a.903.903 0 001.707 0l.52-1.506a4.869 4.869 0 013.012-3.013l1.506-.52a.904.904 0 000-1.706l-1.506-.52a4.866 4.866 0 01-3.013-3.012l-.52-1.506a.904.904 0 00-1.706 0l-.52 1.506a4.865 4.865 0 01-3.012 3.012l-1.506.52a.902.902 0 000 1.707" id="Fill-1" fill="#FFC900"/><path d="M92.655 77.92l1.622.56a5.242 5.242 0 013.244 3.244l.56 1.622a.972.972 0 001.838 0l.56-1.622a5.243 5.243 0 013.244-3.245l1.622-.56a.973.973 0 000-1.837l-1.622-.56a5.24 5.24 0 01-3.245-3.244l-.56-1.623a.973.973 0 00-1.837 0l-.56 1.623a5.24 5.24 0 01-3.244 3.244l-1.622.56a.971.971 0 000 1.838" id="Fill-1-Copy-2" fill="#FFC900"/><path d="M79.42 5.091l1.044.36a3.37 3.37 0 012.085 2.086l.36 1.043a.625.625 0 001.182 0l.36-1.043a3.37 3.37 0 012.085-2.086l1.043-.36a.626.626 0 000-1.181l-1.043-.36a3.369 3.369 0 01-2.086-2.086L84.09.421a.626.626 0 00-1.18 0l-.36 1.043a3.368 3.368 0 01-2.086 2.086l-1.043.36a.624.624 0 000 1.181" id="Fill-1-Copy" fill="#FFC900"/><g id="single-item" transform="translate(18 7)" stroke="#13C1AC" stroke-linejoin="round" stroke-width="3"><path d="M72.5 80c.711 4.373-1.811 10.895-6 12.333-5.792 1.99-34.056 6.602-40 8-5.206 1.225-11.493-4.775-12.084-8.08C13 84.333 11.938 77.378 10.5 67.667c-2.667-18-8.063-39.134-9.952-48.494-.855-4.237 1.881-8.389 5.952-9.84 3.938-1.402 13.521-3.12 22.958-5.152 5.96-1.283 10.121-2.526 13.491-3.348 6.869-1.676 13.228 2.703 15.412 9.427C62.5 23 66.016 40.511 68.5 55c2 11.667 4 25 4 25z" id="Stroke-167" stroke-linecap="round"/><path d="M12 71.334l56.5-12" id="Stroke-185" stroke-linecap="round"/><path d="M20.5 80.834l22-4.5" id="Stroke-187" stroke-linecap="round"/><path d="M23 90.334l40-8.5" id="Stroke-189" stroke-linecap="round"/><path d="M27.248 41.434A7.572 7.572 0 0042 38.007l-14.752 3.427z" id="Stroke-191"/><path d="M44.8 30.715a4.852 4.852 0 015.435-1.262" id="Stroke-193" stroke-linecap="round"/><path d="M15.41 37.543a4.85 4.85 0 015.432-1.262" id="Stroke-195" stroke-linecap="round"/></g></g></g></svg>
